X:705
T: The Queen Of May
Z: Piano Box Version by Martin Fleischmann
H: Created 2015-04-28 /  Last Modified 2015-05-20
R: reel
M: 4/4
L: 1/8
K: Edor
Bcdf eBdB|Az FD FAAd|Bcdf edBc|dBA=c BEFA|
B2 BA BcdB|ADFD FA ~A2|Bcdf edBc|dBA=c BEFA||
~B2 eB fBeB|defa afed|~B2 eB fBeB|dBA=c BEFA|
(3Bcd eg ~f3 e|defa afea|fbba fafe|dBA=c BEFA||

